packages/core/src/svgs/tokens/branded/HEGIC.svg

<svg width="24" height="24" viewBox="0 0 24 24" fill="none" xmlns="http://www.w3.org/2000/svg">
<path d="M2.22727 9.72723C2.35454 9.72723 2.45454 9.84542 2.45454 9.96815V11.7727H5.18182V9.95447C5.18182 9.83178 5.28182 9.72723 5.40909 9.72723C5.53636 9.72723 5.63637 9.83178 5.63637 9.95447V14.0363C5.63637 14.159 5.54546 14.2727 5.41819 14.2727C5.35622 14.2704 5.2974 14.2448 5.25355 14.2009C5.20971 14.1571 5.18408 14.0983 5.18182 14.0363V12.2272H2.45454V14.0363C2.45454 14.159 2.35454 14.2727 2.22727 14.2727C2.09999 14.2727 2 14.159 2 14.0363V9.96815C2 9.84542 2.09999 9.72723 2.22727 9.72723ZM13.7091 9.72723H12.1045C11.9364 9.73177 11.6909 9.78632 11.4818 9.94089C11.2637 10.1 11.0909 10.3681 11.0909 10.7545V13.3318C11.0863 13.4909 11.1227 13.7181 11.2591 13.9136C11.4091 14.1227 11.6545 14.2727 12.0182 14.2727H13.8091C13.9591 14.2682 14.1818 14.2136 14.3727 14.0773C14.5728 13.9272 14.7273 13.6863 14.7273 13.3363V12.3636C14.7273 12.2671 14.689 12.1746 14.6208 12.1064C14.5526 12.0382 14.4601 12 14.3636 12H13.5091C13.3864 12 13.2864 12.0909 13.2864 12.2136C13.2864 12.3408 13.3864 12.4545 13.5137 12.4545H14.2819V13.3363C14.2819 13.5318 14.2 13.6408 14.1091 13.709C14.0091 13.7818 13.8818 13.8136 13.7909 13.8182H12.0182C11.7909 13.8182 11.6819 13.7318 11.6227 13.6499C11.5546 13.5499 11.5318 13.4272 11.5364 13.35V10.7499C11.5364 10.5226 11.6318 10.3863 11.741 10.309C11.8637 10.2181 12.0136 10.1863 12.1136 10.1818H13.7091C13.9545 10.1818 14.0864 10.2772 14.1637 10.3863C14.25 10.5045 14.2819 10.659 14.2819 10.7499C14.2819 10.8772 14.3819 10.9772 14.5046 10.9772C14.5641 10.976 14.6207 10.9515 14.6623 10.9091C14.704 10.8666 14.7273 10.8094 14.7273 10.7499C14.7273 10.5818 14.6818 10.3317 14.5273 10.1181C14.434 9.99021 14.3104 9.88754 14.1676 9.81933C14.0248 9.75109 13.8673 9.71944 13.7091 9.72723ZM7 10.0772C7 9.88182 7.14547 9.72723 7.34546 9.72723H9.72728C9.85455 9.72723 9.95457 9.83178 9.95457 9.95447C9.95457 10.0148 9.9306 10.0726 9.88796 10.1153C9.84537 10.1578 9.78757 10.1818 9.72728 10.1818H7.45456V11.7727H9.05456C9.11324 11.775 9.16874 11.8 9.20942 11.8424C9.25009 11.8848 9.27279 11.9412 9.27274 12C9.27279 12.0587 9.25009 12.1151 9.20942 12.1576C9.16874 12.1999 9.11324 12.2249 9.05456 12.2272H7.45456V13.8182H9.72728C9.85455 13.8182 9.95457 13.9227 9.95457 14.0454C9.95457 14.1057 9.9306 14.1635 9.88796 14.2061C9.84537 14.2488 9.78757 14.2727 9.72728 14.2727H7.34546C7.29932 14.2727 7.25365 14.2635 7.21113 14.2456C7.16861 14.2277 7.13012 14.2014 7.09792 14.1684C7.06572 14.1353 7.04046 14.0961 7.02364 14.0532C7.00683 14.0101 6.99879 13.9643 7 13.9182V10.0772ZM16.7728 9.72723C16.9001 9.72723 17 9.82723 17 9.95447V14.05C16.9988 14.1094 16.9744 14.1661 16.9319 14.2077C16.8894 14.2494 16.8323 14.2727 16.7728 14.2727C16.7133 14.2727 16.6561 14.2494 16.6136 14.2077C16.5712 14.1661 16.5467 14.1094 16.5455 14.05V9.94991C16.5455 9.82723 16.6455 9.72723 16.7728 9.72723ZM19.3773 9.72723H20.9818C21.3728 9.72723 21.6364 9.89539 21.8001 10.1181C21.95 10.3317 22 10.5818 22 10.7545C22 10.8148 21.9761 10.8726 21.9335 10.9152C21.8909 10.9578 21.8331 10.9818 21.7727 10.9818C21.7141 10.9794 21.6586 10.9544 21.6179 10.9121C21.5772 10.8697 21.5545 10.8132 21.5545 10.7545C21.5545 10.6545 21.5227 10.5045 21.4364 10.3909C21.3591 10.2772 21.2273 10.1818 20.9818 10.1818H19.3863C19.2864 10.1818 19.1364 10.2227 19.0136 10.309C18.9046 10.3909 18.8182 10.5226 18.8182 10.7545V13.3454C18.8182 13.4272 18.8273 13.5499 18.8955 13.6499C18.9546 13.7318 19.0637 13.8182 19.2909 13.8182H20.9773C21.0637 13.8182 21.191 13.7818 21.2954 13.709C21.3864 13.6408 21.4637 13.5272 21.4637 13.3363V13.2182C21.457 13.1852 21.4577 13.151 21.4658 13.1184C21.4738 13.0857 21.4891 13.0552 21.5104 13.0291C21.5317 13.003 21.5586 12.982 21.589 12.9675C21.6195 12.9531 21.6528 12.9456 21.6864 12.9456C21.7201 12.9456 21.7533 12.9531 21.7837 12.9675C21.8142 12.982 21.841 13.003 21.8623 13.0291C21.8837 13.0552 21.8989 13.0857 21.907 13.1184C21.9152 13.151 21.9158 13.1852 21.9091 13.2182V13.3363C21.9091 13.6863 21.7546 13.9272 21.5545 14.0773C21.3636 14.2136 21.1455 14.2682 20.9909 14.2727H19.2909C19.1663 14.2794 19.0415 14.2596 18.9251 14.2145C18.8085 14.1694 18.703 14.1001 18.6154 14.0111C18.5277 13.9222 18.4599 13.8156 18.4165 13.6985C18.3731 13.5814 18.3551 13.4564 18.3637 13.3318V10.7545C18.3637 10.3635 18.5364 10.1 18.7545 9.94089C18.9637 9.78632 19.2091 9.73177 19.3728 9.72723H19.3773Z" fill="#36FEF5"/>
</svg>

<svg xmlns="http://www.w3.org/2000/svg" width="24" height="24" fill="none" viewBox="0 0 24 24">
    <path fill="#36FEF5" d="M2.227 9.727c.128 0 .228.118.228.241v1.805h2.727V9.954c0-.122.1-.227.227-.227s.227.105.227.227v4.082c0 .123-.09.237-.218.237a.246.246 0 0 1-.236-.237v-1.809H2.455v1.81c0 .122-.1.236-.228.236-.127 0-.227-.114-.227-.237V9.968c0-.123.1-.24.227-.24m11.482 0h-1.604c-.169.005-.414.06-.623.214-.218.159-.391.427-.391.813v2.578a1 1 0 0 0 .168.582c.15.209.396.359.76.359h1.79c.15-.005.373-.06.564-.196.2-.15.354-.39.354-.74v-.973a.364.364 0 0 0-.363-.364h-.855a.215.215 0 0 0-.223.214c0 .127.1.24.228.24h.768v.882a.43.43 0 0 1-.173.373.6.6 0 0 1-.318.11h-1.773c-.227 0-.336-.087-.395-.17a.5.5 0 0 1-.087-.299v-2.6c0-.227.096-.364.205-.441a.7.7 0 0 1 .373-.127h1.595c.245 0 .377.095.455.204a.67.67 0 0 1 .118.364c0 .127.1.227.223.227a.227.227 0 0 0 .222-.227 1.1 1.1 0 0 0-.2-.632.96.96 0 0 0-.818-.39M7 10.077a.34.34 0 0 1 .345-.35h2.382a.228.228 0 0 1 .161.388.23.23 0 0 1-.16.067H7.454v1.59h1.6a.227.227 0 0 1 0 .455h-1.6v1.591h2.272a.228.228 0 0 1 .161.388.23.23 0 0 1-.16.067H7.344A.346.346 0 0 1 7 13.918zm9.773-.35c.127 0 .227.1.227.227v4.096a.227.227 0 0 1-.454 0v-4.1c0-.123.1-.223.227-.223m2.604 0h1.605c.39 0 .654.168.818.391.15.214.2.464.2.636a.227.227 0 0 1-.227.228.23.23 0 0 1-.218-.227c0-.1-.032-.25-.119-.364-.077-.114-.209-.21-.454-.21h-1.596c-.1 0-.25.042-.372.128-.11.082-.196.214-.196.446v2.59c0 .082.01.205.077.305.06.082.169.168.396.168h1.686a.6.6 0 0 0 .318-.109c.091-.068.169-.182.169-.373v-.118a.227.227 0 1 1 .445 0v.118c0 .35-.154.591-.354.741-.191.137-.41.191-.564.196h-1.7a.882.882 0 0 1-.927-.941v-2.578c0-.39.172-.654.39-.813.21-.155.455-.21.619-.214z"/>
</svg>
